X: 18060
T: Humours Of Ballinahulla, The
R: jig
M: 6/8
K: Gmajor
~B3 G2D|GBd edB|~A3 DFA|DFA cBA|
~B3 G2D|GBd edB|~A3 DFA|1 AGF G2A:|2 AGF G2e||
~f3 def|~g3 efg|fzA AFA|BAF Ade|
~f3 def|~g3 efg|fdB AB^c|1 dfe d2e:|2 dfe d2c||

